img/svg/sit.svg

<svg xmlns="http://www.w3.org/2000/svg" viewBox="0 0 40 46" enable-background="new 0 0 40 46"><path d="M4 7c.6 0 1-.4 1-1v-5c0-.6-.4-1-1-1s-1 .4-1 1v5c0 .6.4 1 1 1zm32 0c.6 0 1-.4 1-1v-5c0-.6-.4-1-1-1s-1 .4-1 1v5c0 .6.4 1 1 1zm3 21h-2v-9c0-.6-.4-1-1-1s-1 .4-1 1v9h-30v-9c0-.6-.4-1-1-1s-1 .4-1 1v9h-2c-.6 0-1 .4-1 1s.4 1 1 1h5.7l11.4 7.3-10.6 6.9c-.5.3-.6.9-.3 1.4.1.2.5.4.8.4.2 0 .4-.1.5-.2l11.5-7.3 11.5 7.3c.2.1.4.2.5.2.3 0 .7-.2.8-.5.3-.5.2-1.1-.3-1.4l-10.7-6.8 11.5-7.3h5.7c.6 0 1-.4 1-1s-.4-1-1-1zm-19 8.1l-9.6-6.1h19.2l-9.6 6.1z" enable-background="new"/><path fill-rule="evenodd" clip-rule="evenodd" fill="#44B6F0" d="M38 6h-36c-.6 0-1 .4-1 1v12c0 .6.4 1 1 1h36c.6 0 1-.4 1-1v-12c0-.6-.4-1-1-1zm-1 12h-34v-10h34v10z" enable-background="new"/></svg>

<?xml version="1.0" encoding="utf-8"?>
<!-- Generator: Adobe Illustrator 18.1.1, SVG Export Plug-In . SVG Version: 6.00 Build 0)  -->
<svg version="1.1" xmlns="http://www.w3.org/2000/svg" xmlns:xlink="http://www.w3.org/1999/xlink" x="0px" y="0px"
	 viewBox="0 0 40 46" enable-background="new 0 0 40 46" xml:space="preserve">
<g id="Shape_30_1_" enable-background="new    ">
	<g id="Shape_30">
		<g>
			<path d="M4,7c0.6,0,1-0.4,1-1V1c0-0.6-0.4-1-1-1C3.4,0,3,0.4,3,1v5C3,6.6,3.4,7,4,7z M36,7c0.6,0,1-0.4,1-1V1c0-0.6-0.4-1-1-1
				c-0.6,0-1,0.4-1,1v5C35,6.6,35.4,7,36,7z M39,28h-2v-9c0-0.6-0.4-1-1-1c-0.6,0-1,0.4-1,1v9H5v-9c0-0.6-0.4-1-1-1
				c-0.6,0-1,0.4-1,1v9H1c-0.6,0-1,0.4-1,1c0,0.6,0.4,1,1,1h5.7l11.4,7.3L7.5,44.2c-0.5,0.3-0.6,0.9-0.3,1.4C7.3,45.8,7.7,46,8,46
				c0.2,0,0.4-0.1,0.5-0.2L20,38.5l11.5,7.3c0.2,0.1,0.4,0.2,0.5,0.2c0.3,0,0.7-0.2,0.8-0.5c0.3-0.5,0.2-1.1-0.3-1.4l-10.7-6.8
				L33.3,30H39c0.6,0,1-0.4,1-1C40,28.4,39.6,28,39,28z M20,36.1L10.4,30h19.2L20,36.1z"/>
		</g>
	</g>
</g>
<g id="Color_Fill_7_1_" enable-background="new    ">
	<g id="Color_Fill_7">
		<g>
			<path fill-rule="evenodd" clip-rule="evenodd" fill="#44B6F0" d="M38,6H2C1.4,6,1,6.4,1,7v12c0,0.6,0.4,1,1,1h36c0.6,0,1-0.4,1-1
				V7C39,6.4,38.6,6,38,6z M37,18H3V8h34V18z"/>
		</g>
	</g>
</g>
</svg>
